X:1
T:Billy Boy
M:4/4
L:1/8
K:G
 d2 dd gg Bc| d2 de d2 z2| d2 dd gg BB| BA z2 z2B-A| G3/2 G/2 G3/2 G/2 G2 AB|\
 cB cd e3/2- e/2 ge| d2 BB dd cF| AG z2 z4|
